resources/svg/bluetooth-o.svg

<svg width="15" height="15" viewBox="0 0 15 15" fill="none" xmlns="http://www.w3.org/2000/svg">
<path d="M7.5 14.5H7C7 14.6864 7.10373 14.8574 7.26909 14.9435C7.43446 15.0296 7.634 15.0165 7.78673 14.9096L7.5 14.5ZM7.5 0.5L7.78673 0.090384C7.634 -0.016531 7.43446 -0.0295882 7.26909 0.0565107C7.10373 0.14261 7 0.313562 7 0.5L7.5 0.5ZM12.5 4L12.7817 4.41311C12.9174 4.32059 12.999 4.16732 13 4.00308C13.001 3.83884 12.9213 3.68457 12.7867 3.59038L12.5 4ZM12.5 11L12.7867 11.4096C12.9213 11.3154 13.001 11.1612 13 10.9969C12.999 10.8327 12.9174 10.6794 12.7817 10.5869L12.5 11ZM8 14.5V7.40909H7V14.5H8ZM8 7.40909V0.5H7V7.40909H8ZM7.21327 0.909616L12.2133 4.40962L12.7867 3.59038L7.78673 0.090384L7.21327 0.909616ZM12.2183 3.58689L7.21833 6.99598L7.78167 7.8222L12.7817 4.41311L12.2183 3.58689ZM7.21833 6.99598L1.21833 11.0869L1.78167 11.9131L7.78167 7.8222L7.21833 6.99598ZM7.78673 14.9096L12.7867 11.4096L12.2133 10.5904L7.21327 14.0904L7.78673 14.9096ZM12.7817 10.5869L1.78167 3.08689L1.21833 3.91311L12.2183 11.4131L12.7817 10.5869Z" fill="black"/>
</svg>

<svg viewBox="0 0 15 15" fill="none" xmlns="http://www.w3.org/2000/svg" fill="currentColor"><path d="M7.5 14.5H7a.5.5 0 00.787.41L7.5 14.5zm0-14l.287-.41A.5.5 0 007 .5h.5zm5 3.5l.282.413a.5.5 0 00.005-.823L12.5 4zm0 7l.287.41a.5.5 0 00-.005-.823L12.5 11zM8 14.5V7.41H7v7.09h1zm0-7.09V.5H7v6.91h1zM7.213.91l5 3.5.574-.82-5-3.5-.574.82zm5.005 2.677l-5 3.409.564.826 5-3.409-.564-.826zm-5 3.409l-6 4.09.564.827 6-4.09-.564-.827zm.569 7.914l5-3.5-.574-.82-5 3.5.574.82zm4.995-4.323l-11-7.5-.564.826 11 7.5.564-.826z" fill="currentColor"/></svg>
